X:708
T:I See Mull
T:Chi Mi Muile
S:West End Session, May 2004
Z:Nigel Gatherer
M:3/4
L:1/8
K:D
fa f2 d2 | ed B2 A2 | fa f2 d2 | fg e4  |
fa f2 d2 | ed B2 A2 | fg e2 A2 | ef d4 :|
fa a2 fd | ed B2 A2 | fa a2 fd | fg e4  |
fa a2 fd | ed B2 A2 | fg e2 A2 | ef d4 :|
